!!!!SEGMENT: pl-kc--40102-iii-1-saf--002-025_zielenski-mikolaj--communiones-totius-anni-in-festo-transfigurationis-domini-visionem.krn
!!!cenid: 16xx:1556
!!!COM: Zieleński, Mikołaj
!!!COM-rismID: pe30013481
!!!CDT: <1611->1611
!!!CNT: Polish
!!!GTL: Communiones totius anni
!!!OTL: In festo Transfigurationis Domini/Visionem
!!!OMV: 025
!!!PDT: 1611
!!!AGN:
!!!YEC: Copyright 2022 Narodowy Instytut Fryderyka Chopina (https://polishscores.org)
!!!YEM: License CC-BY-4.0 (https://creativecommons.org/licenses/by/4.0)
!!!SMS-siglum: PL-Kc
!!!SMS-shelfmark: 40102 III/1 Saf.
!!!SMS-shelfwork: 002-025 G
!!!SMS-variant:
!!!SMS-altvar:
!!!NIFC-rismSourceID: 990069887
!!!NIFC-rismChildID: 990069887
!!!NIFC-islandoraID: none
!!!URL-pdf-islandora:
!!!URL-scan: https://cyfrowe.mnk.pl/dlibra/publication/24235/edition/23926/content?ref=desc @EN{Scan on The National Museum in Krakow Website} @PL{Skany w portalu Biblioteka Cyfrowa Muzeum Narodowego w Krakowie}
!!!IIIF:
!!!ONB-nifc: UWAGA: str. 57. Numer w źródle: 29. Uwaga: W xml metrum 2/1 do źródłowego C| i odpowiednio 3/1 do 3/2
!!!AIN: 3 organ
!!!key:
**kern	**kern	**kern
*group1	*group1	*group1
*part3	*part2	*part1
*staff3	*staff2	*staff1
*I"	*I"Organo	*I"
*I'	*I'org	*I'
*Iorgan	*Iorgan	*Iorgan
*ICklav	*ICklav	*ICklav
*clefF4	*clefC1	*clefC1
*k[b-]	*k[b-]	*k[b-]
*B-:	*B-:	*B-:
*M2/1	*M2/1	*M2/1
*met(C|)	*met(C|)	*met(C|)
=1	=1	=1
!	!	!LO:TX:b:t=Viſionem
!	!	!LO:TX:a:t=29. In feſto Transfigurationis Domini Tres vocis&colon;
1.F	1.a	1.cc
2F\	2a\	2cc\
=2-	=2-	=2-
1BB-	1b-X	1dd
2F\	2a\	2cc\
2F\	[y2f/	[<2a\
=3	=3	=3
!	!LO:N:xstem:cue	!
2F\	4f/]	2a\]
.	4g/	.
2C/	2.a\	2cc\
2D/	.	1b-
.	8g/	.
.	8f/	.
2E\	2g/	.
=4-	=4-	=4-
2F\	2a\	2a\
2.FF/	2.a\	2.cc\
4FF/	4a\	4cc\
2GG/	2g/	2b-\
=5	=5	=5
2.AA/	2.f/	2.a\
4FF/	4f/	4a\
2.C/	2.e/	2.g/
4GG/	4g/	4b-\
=6-	=6-	=6-
4GG/	2.b-\	2.dd\
4AA/	.	.
4BB-/	.	.
4C/	8a\	8cc\
.	8g\	8b-\
2D/	4f#X/	4a\
.	2g/	4b-\
2DD/	.	2a\
.	4f#X/	.
=7	=7	=7
1GG	2g/	2g/
.	1b-	1dd
2.G\	.	.
.	2b-\	2dd\
4G\	.	.
=8-	=8-	=8-
1B-	1b-	1dd
2F\	2a\	2cc\
2F\	[<2a\	[<2cc\
=9	=9	=9
2F\	2a\]	2cc\]
2D/	2a\	2dd\
2G\	1g	1b-
2GG/	.	.
=10-	=10-	=10-
2D/	2f#X/	2a\
2.D/	2.dd\	2.ff\
4D/	4dd\	4ff\
2AA/	2cc\	2ee\
=11	=11	=11
2.BB-/	2.b-\	2.dd\
4BB-/	4b-\	4dd\
2F\	2a\	2cc\
2C/	1g\	2ee-X\
=12-	=12-	=12-
4C/	.	2.ee-yX\
4D/	.	.
4E-X\	2.cc\	.
4C/	.	8ff\
.	.	8ee-X\
2G\	.	2dd\
!	!LO:N:acc=#	!
.	8bn\	.
!	!LO:SIC:v:o=8a\	!
.	8a#\	.
2GG/	2b\	2dd\
=13	=13	=13
2C/	2cc\	2cc\
2.AA/	2.cc\	2.ee\
4AA/	4cc\	4ff\
2BB-/	2b-\	2dd\
=14-	=14-	=14-
2.FF/	2.a\	2.cc\
4FF/	8g/	8b-\
.	8f/	8a\
2C/	2g/	2g/
2GG/	4r	4r
.	4b-\	4dd\
=15	=15	=15
4GG/	2.b-\	2.dd\
4AA/	.	.
4BB-/	.	.
4C/	8a\	8cc\
.	8g\	8b-\
4D/	4f/	4a\
8C/	4g/	4b-\
8BB-/	.	.
4AA/	4a\	4cc\
4BB-/	8g/	8b-\
.	8f/	8a\
=16-	=16-	=16-
4C/	4e/	4g\
8BB-/	4f/	4a\
8AA/	.	.
4GG/	4g/	4b-\
4AA/	8f/	8a\
.	8e/	8g\
4BB-/	4d/	4f/
8AA/	4e/	4g/
8GG/	.	.
2FF/	[2f/	[<2a\
=17	=17	=17
1.C	2f/]	2a\]
.	4e/	4g/
.	4d/	4f/
.	4e/	2g/
.	2f/	.
2C/	.	2g/
.	4e/	.
=18-	=18-	=18-
1FF	1f	1a#X
2F\	2a\	2cc\
4F\	4a\	4cc\
4F\	4f/	4a#\
=19	=19	=19
2E-X\	2g/	2b-\
2C/	2a\	2cc\
2.BB-/	4b-\	4dd\
.	4g/	4b-\
!	!	!LO:N:vis=4
.	2dd\	2ff\
4BB-/	.	.
=20-	=20-	=20-
2F\	2a\	2cc\
2FF/	4r	4r
.	4a\	4cc\
4r	2cc\	2ee-X\
4C/	.	.
2G\	2b-\	2dd\
*custos:GG	*custos:g	*custos:b
!!linebreak:original
=21	=21	=21
2GG/	4r	4r
.	4g/	4b-\
4r	2.b-\	2.dd\
4GG/	.	.
2.D/	.	.
.	8a\	8cc\
.	8g\	8b-\
.	4f#X/	4a\
8C/	4g/	4b-\
8BB-/	.	.
=22-	=22-	=22-
2AA/	2a\	2cc\
2.BB-/	2.dd\	2.ff\
4BB-/	4dd\	4ff\
[<2F\	4a\	4cc\
.	4g/	4b-\
=23	=23	=23
2F\]	4a\	4cc\
.	4b-\	4dd\
2.C/	2.cc\	2.ee-X\
4C/	4cc\	4ee-\
2D/	2b-\	2dd\
=24-	=24-	=24-
1E-X	2.ee-X\	4cc\
.	.	4b-\
.	.	2.b-\
.	4dd\	.
1F	2cc\	.
.	.	8a\
.	.	8g\
.	2cc\	2a\
=25	=25	=25
1BB-	1dd	1b-
2BB-/	2b-\	2dd\
4BB-/	4b-\	4dd\
4BB-/	4g/	4b-\
=26-	=26-	=26-
2F\	2a#X\	2cc\
2D/	2b-\	2dd\
4C/	4cc\	1ee-X
4C/	4g/	.
4C/	4g/	.
4AA/	4a#\	.
=27	=27	=27
2GG/	2b-\	1r
2GG/	2b-\	.
4D/	4a\	4r
4D/	4f/	4dd\
4D/	4a\	4dd\
4C/	4cc\	4ee\
=28-	=28-	=28-
2BB-/	2dd\	2ff\
2BB-/	2b-\	2dd\
2F\	4a\	4cc\
.	4a\	4cc\
4r	2cc\	2ee-X\
4C/	.	.
=29	=29	=29
2E-X\	4g/	4b-\
.	4g/	4b-\
4BB-/	2b-\	2dd\
4BB-/	.	.
2D/	4f/	4a\
.	4f/	4a\
4AA/	2.a\	2.cc\
4AA/	.	.
=30-	=30-	=30-
2.C/	.	.
.	8g/	8b-\
.	8f/	8a\
.	4e/	4g/
8BB-/	4f/	4a\
8AA/	.	.
2GG/	2g/	2b-\
[y2E-X\	[y2g/	[y2b-\
=31	=31	=31
!LO:N:xstem:cue	!LO:N:xstem:cue	!LO:N:xstem:cue
4E-\]	4g\]	4b-\]
4E-yX\	4g/	4b-\
!	!	!LO:SIC:v:o=2ee\
2C/	1cc	2ee-\
4D/	.	1dd
4BB-/	.	.
4D/	2.b-\	.
4E-\	.	.
=32-	=32-	=32-
2F\	.	2.cc\
.	8a\	.
.	8g\	.
2FF/	2a\	.
.	.	4cc\
2BB-/	2b-\	2b-\
[y2BB-/	[y2b-\	[y2dd\
=33	=33	=33
!LO:N:xstem:cue	!LO:N:xstem:cue	!LO:N:xstem:cue
4BB-/]	4b-\]	4dd\]
4BB-/	4b-\	4dd\
2FF/	2a\	2cc\
2.AA/	2.a\	2.cc\
4BB-/	8g/	8b-\
.	8f/	8a\
=34-	=34-	=34-
2C/	4e/	4g/
.	4f/	4a\
2GG/	1g	2b-\
4AA/	.	2a\
4FF/	.	.
4AA/	[2f/	[<2a\
4BB-/	.	.
=35	=35	=35
1.C	2f/]	2a\]
.	4e/	4g/
.	4d/	4f/
.	4e/	2g/
.	2f/	.
2C/	.	2g/
.	4e/	.
=36-	=36-	=36-
2FF/	2.f/	1.a
2.F\	.	.
.	4g/	.
.	2a\	.
4F\	.	.
2D/	[y2dd\	[y2ff\
=37	=37	=37
*lig	*	*
*col	*	*
!	!LO:N:xstem:cue	!LO:N:xstem:cue
1BB-	4dd\]	4ff\]
.	4dd\	4ff\
.	4b-\	2dd\
.	2b-\	.
2.F\	.	2cc\
.	8a\	.
.	8g\	.
.	2a\	2cc\
*Xlig	*	*
*Xcol	*	*
4F\	.	.
=38-	=38-	=38-
2.BB-/	4b-\	4dd\
.	4b-\	4dd\
.	2dd\	2ff\
4BB-/	.	.
2F\	4a\	4cc\
.	4f/	4a\
4F\	2a\	2cc\
4FF/	.	.
=39	=39	=39
2F\	4a\	4cc\
.	4f/	4a\
4F\	2f/	2cc\
4FF/	.	.
1F	4a\	4cc\
.	4a\	4cc\
.	2a\	1ff\
=40-	=40-	=40-
1C	1g	.
.	.	2ee\
2r	2r	2r
[y2D/	[y2f/	[y2dd\
*custos:D	*custos:f	*custos:ee
!!linebreak:original
=41	=41	=41
!LO:N:xstem:cue	!LO:N:xstem:cue	!LO:N:xstem:cue
4D\]	4f/]	4dd\]
4D/	4f/	4dd\
2F\	4a\	2cc\
.	2a\	.
2G\	.	2b-\
.	8g/	.
.	8f/	.
2GG/	2g/	2b-\
=42-	=42-	=42-
2D/	2a\	2a\
2.D/	2.dd\	2.ff\
4D/	4dd\	4ff\
2AA/	2cc\	2ee\
=43	=43	=43
0BB-	4b-\	4dd\
.	4a\	4cc\
.	4g/	4b-\
.	4f/	4a\
.	4g/	4b-\
.	4a\	4cc\
.	4b-\	4dd\
.	4cc\	4ee\
=44-	=44-	=44-
1BB-	2dd\	2ff\
.	1b-	2dd\
!LO:TX:t=P:LO:N:vis=00:problem	!	!LO:TX:t=P:LO:N:vis=00:problem
0.FFl	.	0.ccl
.	4a\	.
.	4g/	.
=45-	=45-	=45-
.	0al	.
==	==	==
*-	*-	*-
!!!system-decoration: [s1,s2,s3]
!!!RDF**kern: l = terminal long
!!!RDF**kern: > = above
!!!RDF**kern: < = below
!!!ENC: Katarzyna Serwa
!!!END: 2021-12-24
!!!ENC: Filip Voros
!!!END: 2021-12-19
